docs/images/attendance.svg

<svg width="30" height="30" viewBox="0 0 30 30" fill="none" xmlns="http://www.w3.org/2000/svg">
<path d="M28.8926 0.0731982L25.718 1.51816C25.5147 1.61199 25.3271 1.74023 25.1676 1.89974L19.9945 7.07597L2.17947 4.93979C1.85733 4.90226 1.53205 5.01173 1.30374 5.24317L0.312277 6.23463C-0.213166 6.76008 -0.0505287 7.64832 0.628168 7.9517L13.3952 13.6753L9.72958 17.3409H3.32731C3.04583 17.3409 2.77685 17.4535 2.57668 17.6505L2.04186 18.1884C1.51016 18.7201 1.68531 19.6177 2.37339 19.9118L7.77481 22.2262L10.0893 27.6276C10.3833 28.3157 11.284 28.4909 11.8126 27.9592L12.3505 27.4212C12.5507 27.221 12.6602 26.9521 12.6602 26.6706V20.2683L16.3258 16.6027L22.0493 29.3729C22.3527 30.0516 23.2409 30.2142 23.7664 29.6888L24.7578 28.6973C24.9893 28.4659 25.0987 28.1437 25.0612 27.8216L22.9219 10.0066L28.0981 4.83036C28.2577 4.67085 28.3859 4.48632 28.4797 4.27989L29.9247 1.10535C30.2281 0.451642 29.5525 -0.227054 28.8926 0.0731982Z" fill="white"/>
</svg>

<svg xmlns="http://www.w3.org/2000/svg" fill="none" viewBox="0 0 30 30">
  <defs/>
  <path fill="#fff" d="M28.9 0l-3.2 1.5a2 2 0 00-.5.4L20 7.1 2.2 4.9a1 1 0 00-.9.3l-1 1A1 1 0 00.6 8l12.8 5.7-3.7 3.6H3.3a1 1 0 00-.7.4l-.6.5a1 1 0 00.4 1.7l5.4 2.3 2.3 5.4a1 1 0 001.7.4l.6-.6c.2-.2.3-.4.3-.7v-6.4l3.6-3.7L22 29.4a1 1 0 001.8.3l1-1c.2-.2.3-.6.3-.9L22.9 10l5.2-5.2.4-.5L29.9 1a.8.8 0 00-1-1z"/>
</svg>
